bernoullicharts/exp_x_1-x__bits.svg

<?xml version="1.0" encoding="utf-8" standalone="no"?>
<!DOCTYPE svg PUBLIC "-//W3C//DTD SVG 1.1//EN"
  "http://www.w3.org/Graphics/SVG/1.1/DTD/svg11.dtd">
<!-- Created with matplotlib (https://matplotlib.org/) -->
<svg height="345.6pt" version="1.1" viewBox="0 0 460.8 345.6" width="460.8pt" xmlns="http://www.w3.org/2000/svg" xmlns:xlink="http://www.w3.org/1999/xlink">
 <defs>
  <style type="text/css">
*{stroke-linecap:butt;stroke-linejoin:round;}
  </style>
 </defs>
 <g id="figure_1">
  <g id="patch_1">
   <path d="M 0 345.6 
L 460.8 345.6 
L 460.8 0 
L 0 0 
z
" style="fill:#ffffff;"/>
  </g>
  <g id="axes_1">
   <g id="patch_2">
    <path d="M 57.6 307.584 
L 414.72 307.584 
L 414.72 41.472 
L 57.6 41.472 
z
" style="fill:#ffffff;"/>
   </g>
   <g id="matplotlib.axis_1">
    <g id="xtick_1">
     <g id="line2d_1">
      <defs>
       <path d="M 0 0 
L 0 3.5 
" id="ma7d7697b9c" style="stroke:#000000;stroke-width:0.8;"/>
      </defs>
      <g>
       <use style="stroke:#000000;stroke-width:0.8;" x="73.800255" xlink:href="#ma7d7697b9c" y="307.584"/>
      </g>
     </g>
     <g id="text_1">
      <text style="font-family:DejaVu Sans;font-size:10px;font-style:normal;font-weight:normal;text-anchor:middle;" transform="rotate(-0, 73.800255, 322.182437)" x="73.800255" y="322.182437">0.0</text>
     </g>
    </g>
    <g id="xtick_2">
     <g id="line2d_2">
      <g>
       <use style="stroke:#000000;stroke-width:0.8;" x="138.744153" xlink:href="#ma7d7697b9c" y="307.584"/>
      </g>
     </g>
     <g id="text_2">
      <text style="font-family:DejaVu Sans;font-size:10px;font-style:normal;font-weight:normal;text-anchor:middle;" transform="rotate(-0, 138.744153, 322.182437)" x="138.744153" y="322.182437">0.2</text>
     </g>
    </g>
    <g id="xtick_3">
     <g id="line2d_3">
      <g>
       <use style="stroke:#000000;stroke-width:0.8;" x="203.688051" xlink:href="#ma7d7697b9c" y="307.584"/>
      </g>
     </g>
     <g id="text_3">
      <text style="font-family:DejaVu Sans;font-size:10px;font-style:normal;font-weight:normal;text-anchor:middle;" transform="rotate(-0, 203.688051, 322.182437)" x="203.688051" y="322.182437">0.4</text>
     </g>
    </g>
    <g id="xtick_4">
     <g id="line2d_4">
      <g>
       <use style="stroke:#000000;stroke-width:0.8;" x="268.631949" xlink:href="#ma7d7697b9c" y="307.584"/>
      </g>
     </g>
     <g id="text_4">
      <text style="font-family:DejaVu Sans;font-size:10px;font-style:normal;font-weight:normal;text-anchor:middle;" transform="rotate(-0, 268.631949, 322.182437)" x="268.631949" y="322.182437">0.6</text>
     </g>
    </g>
    <g id="xtick_5">
     <g id="line2d_5">
      <g>
       <use style="stroke:#000000;stroke-width:0.8;" x="333.575847" xlink:href="#ma7d7697b9c" y="307.584"/>
      </g>
     </g>
     <g id="text_5">
      <text style="font-family:DejaVu Sans;font-size:10px;font-style:normal;font-weight:normal;text-anchor:middle;" transform="rotate(-0, 333.575847, 322.182437)" x="333.575847" y="322.182437">0.8</text>
     </g>
    </g>
    <g id="xtick_6">
     <g id="line2d_6">
      <g>
       <use style="stroke:#000000;stroke-width:0.8;" x="398.519745" xlink:href="#ma7d7697b9c" y="307.584"/>
      </g>
     </g>
     <g id="text_6">
      <text style="font-family:DejaVu Sans;font-size:10px;font-style:normal;font-weight:normal;text-anchor:middle;" transform="rotate(-0, 398.519745, 322.182437)" x="398.519745" y="322.182437">1.0</text>
     </g>
    </g>
    <g id="text_7">
     <text style="font-family:DejaVu Sans;font-size:10px;font-style:normal;font-weight:normal;text-anchor:middle;" transform="rotate(-0, 236.16, 335.860562)" x="236.16" y="335.860562">Probability</text>
    </g>
   </g>
   <g id="matplotlib.axis_2">
    <g id="ytick_1">
     <g id="line2d_7">
      <defs>
       <path d="M 0 0 
L -3.5 0 
" id="m536cf29fb7" style="stroke:#000000;stroke-width:0.8;"/>
      </defs>
      <g>
       <use style="stroke:#000000;stroke-width:0.8;" x="57.6" xlink:href="#m536cf29fb7" y="295.38631"/>
      </g>
     </g>
     <g id="text_8">
      <text style="font-family:DejaVu Sans;font-size:10px;font-style:normal;font-weight:normal;text-anchor:end;" transform="rotate(-0, 50.6, 299.185529)" x="50.6" y="299.185529">2</text>
     </g>
    </g>
    <g id="ytick_2">
     <g id="line2d_8">
      <g>
       <use style="stroke:#000000;stroke-width:0.8;" x="57.6" xlink:href="#m536cf29fb7" y="244.541417"/>
      </g>
     </g>
     <g id="text_9">
      <text style="font-family:DejaVu Sans;font-size:10px;font-style:normal;font-weight:normal;text-anchor:end;" transform="rotate(-0, 50.6, 248.340636)" x="50.6" y="248.340636">4</text>
     </g>
    </g>
    <g id="ytick_3">
     <g id="line2d_9">
      <g>
       <use style="stroke:#000000;stroke-width:0.8;" x="57.6" xlink:href="#m536cf29fb7" y="193.696525"/>
      </g>
     </g>
     <g id="text_10">
      <text style="font-family:DejaVu Sans;font-size:10px;font-style:normal;font-weight:normal;text-anchor:end;" transform="rotate(-0, 50.6, 197.495743)" x="50.6" y="197.495743">6</text>
     </g>
    </g>
    <g id="ytick_4">
     <g id="line2d_10">
      <g>
       <use style="stroke:#000000;stroke-width:0.8;" x="57.6" xlink:href="#m536cf29fb7" y="142.851632"/>
      </g>
     </g>
     <g id="text_11">
      <text style="font-family:DejaVu Sans;font-size:10px;font-style:normal;font-weight:normal;text-anchor:end;" transform="rotate(-0, 50.6, 146.650851)" x="50.6" y="146.650851">8</text>
     </g>
    </g>
    <g id="ytick_5">
     <g id="line2d_11">
      <g>
       <use style="stroke:#000000;stroke-width:0.8;" x="57.6" xlink:href="#m536cf29fb7" y="92.006739"/>
      </g>
     </g>
     <g id="text_12">
      <text style="font-family:DejaVu Sans;font-size:10px;font-style:normal;font-weight:normal;text-anchor:end;" transform="rotate(-0, 50.6, 95.805958)" x="50.6" y="95.805958">10</text>
     </g>
    </g>
    <g id="text_13">
     <text style="font-family:DejaVu Sans;font-size:10px;font-style:normal;font-weight:normal;text-anchor:middle;" transform="rotate(-90, 31.795312, 174.528)" x="31.795312" y="174.528">Average Bits Consumed Per Call</text>
    </g>
   </g>
   <g id="line2d_12">
    <path clip-path="url(#p3d7b167148)" d="M 73.832727 291.827168 
L 77.112066 292.691531 
L 80.391405 294.572792 
L 83.670744 294.115188 
L 86.950083 293.250825 
L 90.229421 292.844066 
L 93.50876 295.488 
L 96.788099 289.742527 
L 100.067438 290.962805 
L 103.346777 293.454204 
L 106.626116 288.21718 
L 109.905455 286.996903 
L 113.184793 288.52225 
L 116.464132 290.962805 
L 119.743471 290.200131 
L 123.02281 283.997054 
L 126.302149 285.319021 
L 129.581488 284.658038 
L 132.860826 281.759879 
L 136.140165 279.573549 
L 139.419504 280.844671 
L 142.698843 277.234683 
L 145.978182 273.217937 
L 149.257521 278.86172 
L 152.53686 277.183839 
L 155.816198 279.217634 
L 159.095537 275.658492 
L 162.374876 273.726386 
L 165.654215 263.760787 
L 168.933554 267.370774 
L 172.212893 269.60795 
L 175.492231 266.658946 
L 178.77157 267.167395 
L 182.050909 266.353876 
L 185.330248 264.574305 
L 188.609587 260.303334 
L 191.888926 257.100106 
L 195.168264 257.201796 
L 198.447603 252.727445 
L 201.726942 254.303637 
L 205.006281 248.253095 
L 208.28562 247.89718 
L 211.564959 243.52452 
L 214.844298 242.863536 
L 218.123636 241.999173 
L 221.402975 245.761695 
L 224.682314 240.880585 
L 227.961653 249.320837 
L 231.240992 250.032666 
L 234.520331 232.948782 
L 237.799669 223.898391 
L 241.079008 228.220207 
L 244.358347 226.49148 
L 247.637686 225.169513 
L 250.917025 226.79655 
L 254.196364 221.406991 
L 257.475702 210.17027 
L 260.755041 214.74631 
L 264.03438 215.966588 
L 267.313719 213.475188 
L 270.593058 214.797155 
L 273.872397 211.848151 
L 277.151736 200.306361 
L 280.431074 197.611581 
L 283.710413 194.459198 
L 286.989752 181.900509 
L 290.269091 191.916953 
L 293.54843 186.730774 
L 296.827769 186.120636 
L 300.107107 180.629387 
L 303.386446 184.035995 
L 306.665785 174.934759 
L 309.945124 169.494356 
L 313.224463 158.613549 
L 316.503802 162.78283 
L 319.78314 163.138744 
L 323.062479 154.647647 
L 326.341818 154.342578 
L 329.621157 151.393574 
L 332.900496 148.292035 
L 336.179835 145.597256 
L 339.459174 136.546865 
L 342.738512 133.801241 
L 346.017851 128.208303 
L 349.29719 126.632111 
L 352.576529 129.174356 
L 355.855868 118.446083 
L 359.135207 123.225503 
L 362.414545 109.395692 
L 365.693884 107.666966 
L 368.973223 89.769564 
L 372.252562 88.956045 
L 375.531901 94.040535 
L 378.81124 90.583082 
L 382.090579 90.278013 
L 385.369917 76.753271 
L 388.649256 65.31317 
L 391.928595 65.923309 
L 395.207934 58.652489 
L 398.487273 53.568 
" style="fill:none;stroke:#1f77b4;stroke-linecap:square;stroke-width:1.5;"/>
   </g>
   <g id="patch_3">
    <path d="M 57.6 307.584 
L 57.6 41.472 
" style="fill:none;stroke:#000000;stroke-linecap:square;stroke-linejoin:miter;stroke-width:0.8;"/>
   </g>
   <g id="patch_4">
    <path d="M 414.72 307.584 
L 414.72 41.472 
" style="fill:none;stroke:#000000;stroke-linecap:square;stroke-linejoin:miter;stroke-width:0.8;"/>
   </g>
   <g id="patch_5">
    <path d="M 57.6 307.584 
L 414.72 307.584 
" style="fill:none;stroke:#000000;stroke-linecap:square;stroke-linejoin:miter;stroke-width:0.8;"/>
   </g>
   <g id="patch_6">
    <path d="M 57.6 41.472 
L 414.72 41.472 
" style="fill:none;stroke:#000000;stroke-linecap:square;stroke-linejoin:miter;stroke-width:0.8;"/>
   </g>
   <g id="text_14">
    <text style="font-family:DejaVu Sans;font-size:12px;font-style:normal;font-weight:normal;text-anchor:middle;" transform="rotate(-0, 236.16, 35.472)" x="236.16" y="35.472">Avg. Bits Consumed by exp(x)*(1-x) Algorithm</text>
   </g>
   <g id="legend_1">
    <g id="patch_7">
     <path d="M 64.6 64.150125 
L 157.259375 64.150125 
Q 159.259375 64.150125 159.259375 62.150125 
L 159.259375 48.472 
Q 159.259375 46.472 157.259375 46.472 
L 64.6 46.472 
Q 62.6 46.472 62.6 48.472 
L 62.6 62.150125 
Q 62.6 64.150125 64.6 64.150125 
z
" style="fill:#ffffff;opacity:0.8;stroke:#cccccc;stroke-linejoin:miter;"/>
    </g>
    <g id="line2d_13">
     <path d="M 66.6 54.570438 
L 86.6 54.570438 
" style="fill:none;stroke:#1f77b4;stroke-linecap:square;stroke-width:1.5;"/>
    </g>
    <g id="line2d_14"/>
    <g id="text_15">
     <text style="font-family:DejaVu Sans;font-size:10px;font-style:normal;font-weight:normal;text-anchor:start;" transform="rotate(-0, 94.6, 58.070438)" x="94.6" y="58.070438">exp(x)*(1-x)</text>
    </g>
   </g>
  </g>
 </g>
 <defs>
  <clipPath id="p3d7b167148">
   <rect height="266.112" width="357.12" x="57.6" y="41.472"/>
  </clipPath>
 </defs>
</svg>

<svg height="460.8" viewBox="0 0 460.8 345.6" width="614.4" xmlns="http://www.w3.org/2000/svg" xmlns:xlink="http://www.w3.org/1999/xlink"><defs><style>*{stroke-linecap:butt;stroke-linejoin:round}</style></defs><g id="figure_1"><path d="M0 345.6h460.8V0H0z" fill="#fff" id="patch_1"/><g id="axes_1"><path d="M57.6 307.584h357.12V41.472H57.6z" fill="#fff" id="patch_2"/><g id="matplotlib.axis_1"><g id="xtick_1"><g id="line2d_1"><defs><path d="M0 0v3.5" id="ma7d7697b9c" stroke="#000" stroke-width=".8"/></defs><use x="73.8" xlink:href="#ma7d7697b9c" y="307.584" stroke="#000" stroke-width=".8"/></g><text x="73.8" y="322.182" font-family="DejaVu Sans" font-size="10" font-weight="400" text-anchor="middle" id="text_1">0.0</text></g><g id="xtick_2"><use x="138.744" xlink:href="#ma7d7697b9c" y="307.584" stroke="#000" stroke-width=".8" id="line2d_2"/><text x="138.744" y="322.182" font-family="DejaVu Sans" font-size="10" font-weight="400" text-anchor="middle" id="text_2">0.2</text></g><g id="xtick_3"><use x="203.688" xlink:href="#ma7d7697b9c" y="307.584" stroke="#000" stroke-width=".8" id="line2d_3"/><text x="203.688" y="322.182" font-family="DejaVu Sans" font-size="10" font-weight="400" text-anchor="middle" id="text_3">0.4</text></g><g id="xtick_4"><use x="268.632" xlink:href="#ma7d7697b9c" y="307.584" stroke="#000" stroke-width=".8" id="line2d_4"/><text x="268.632" y="322.182" font-family="DejaVu Sans" font-size="10" font-weight="400" text-anchor="middle" id="text_4">0.6</text></g><g id="xtick_5"><use x="333.576" xlink:href="#ma7d7697b9c" y="307.584" stroke="#000" stroke-width=".8" id="line2d_5"/><text x="333.576" y="322.182" font-family="DejaVu Sans" font-size="10" font-weight="400" text-anchor="middle" id="text_5">0.8</text></g><g id="xtick_6"><use x="398.52" xlink:href="#ma7d7697b9c" y="307.584" stroke="#000" stroke-width=".8" id="line2d_6"/><text x="398.52" y="322.182" font-family="DejaVu Sans" font-size="10" font-weight="400" text-anchor="middle" id="text_6">1.0</text></g><text x="236.16" y="335.861" font-family="DejaVu Sans" font-size="10" font-weight="400" text-anchor="middle" id="text_7">Probability</text></g><g id="matplotlib.axis_2"><g id="ytick_1"><g id="line2d_7"><defs><path d="M0 0h-3.5" id="m536cf29fb7" stroke="#000" stroke-width=".8"/></defs><use x="57.6" xlink:href="#m536cf29fb7" y="295.386" stroke="#000" stroke-width=".8"/></g><text x="50.6" y="299.186" font-family="DejaVu Sans" font-size="10" font-weight="400" text-anchor="end" id="text_8">2</text></g><g id="ytick_2"><use x="57.6" xlink:href="#m536cf29fb7" y="244.541" stroke="#000" stroke-width=".8" id="line2d_8"/><text x="50.6" y="248.341" font-family="DejaVu Sans" font-size="10" font-weight="400" text-anchor="end" id="text_9">4</text></g><g id="ytick_3"><use x="57.6" xlink:href="#m536cf29fb7" y="193.697" stroke="#000" stroke-width=".8" id="line2d_9"/><text x="50.6" y="197.496" font-family="DejaVu Sans" font-size="10" font-weight="400" text-anchor="end" id="text_10">6</text></g><g id="ytick_4"><use x="57.6" xlink:href="#m536cf29fb7" y="142.852" stroke="#000" stroke-width=".8" id="line2d_10"/><text x="50.6" y="146.651" font-family="DejaVu Sans" font-size="10" font-weight="400" text-anchor="end" id="text_11">8</text></g><g id="ytick_5"><use x="57.6" xlink:href="#m536cf29fb7" y="92.007" stroke="#000" stroke-width=".8" id="line2d_11"/><text x="50.6" y="95.806" font-family="DejaVu Sans" font-size="10" font-weight="400" text-anchor="end" id="text_12">10</text></g><text transform="rotate(-90 31.795 174.528)" x="31.795" y="174.528" font-family="DejaVu Sans" font-size="10" font-weight="400" text-anchor="middle" id="text_13">Average Bits Consumed Per Call</text></g><path clip-path="url(#p3d7b167148)" d="M73.833 291.827l3.28.865 3.278 1.88 3.28-.457 3.28-.864 3.278-.407 3.28 2.644 3.28-5.745 3.278 1.22 3.28 2.491 3.28-5.237 3.278-1.22 3.28 1.525 3.28 2.44 3.278-.762 3.28-6.203 3.28 1.322 3.278-.661 3.28-2.898 3.28-2.186 3.279 1.27 3.279-3.61 3.28-4.016 3.279 5.644 3.279-1.678 3.28 2.034 3.279-3.56 3.279-1.932 3.28-9.965 3.279 3.61 3.279 2.237 3.28-2.95 3.279.51 3.279-.814 3.28-1.78 3.279-4.27 3.279-3.204 3.28.102 3.279-4.475 3.279 1.577 3.28-6.05 3.279-.357 3.279-4.372 3.28-.661 3.279-.865 3.279 3.763 3.28-4.881 3.279 8.44 3.279.712 3.28-17.084 3.279-9.05 3.279 4.321 3.28-1.729 3.279-1.321 3.279 1.627 3.28-5.39 3.279-11.237 3.279 4.576 3.28 1.22 3.279-2.49 3.28 1.321 3.278-2.949 3.28-11.542 3.28-2.694 3.278-3.153 3.28-12.558 3.28 10.016 3.278-5.186 3.28-.61 3.28-5.492 3.278 3.407 3.28-9.101 3.28-5.44 3.278-10.881 3.28 4.169 3.28.356 3.278-8.491 3.28-.305 3.28-2.95 3.278-3.101 3.28-2.695 3.28-9.05 3.279-2.746 3.279-5.593 3.28-1.576 3.279 2.542 3.279-10.728 3.28 4.78 3.279-13.83 3.279-1.729 3.28-17.897 3.279-.814 3.279 5.085 3.28-3.458 3.279-.305 3.279-13.525 3.28-11.44 3.279.61 3.279-7.27 3.28-5.085" fill="none" stroke="#1f77b4" stroke-linecap="square" stroke-width="1.5" id="line2d_12"/><path d="M57.6 307.584V41.472" fill="none" stroke="#000" stroke-linecap="square" stroke-width=".8" id="patch_3"/><path d="M414.72 307.584V41.472" fill="none" stroke="#000" stroke-linecap="square" stroke-width=".8" id="patch_4"/><path d="M57.6 307.584h357.12" fill="none" stroke="#000" stroke-linecap="square" stroke-width=".8" id="patch_5"/><path d="M57.6 41.472h357.12" fill="none" stroke="#000" stroke-linecap="square" stroke-width=".8" id="patch_6"/><text x="236.16" y="35.472" font-family="DejaVu Sans" font-size="12" font-weight="400" text-anchor="middle" id="text_14">Avg. Bits Consumed by exp(x)*(1-x) Algorithm</text><g id="legend_1"><path d="M64.6 64.15h92.66q2 0 2-2V48.472q0-2-2-2H64.6q-2 0-2 2V62.15q0 2 2 2z" fill="#fff" opacity=".8" stroke="#ccc" id="patch_7"/><path d="M66.6 54.57h20" fill="none" stroke="#1f77b4" stroke-linecap="square" stroke-width="1.5" id="line2d_13"/><text x="94.6" y="58.07" font-family="DejaVu Sans" font-size="10" font-weight="400" id="text_15">exp(x)*(1-x)</text></g></g></g><defs><clipPath id="p3d7b167148"><path d="M57.6 41.472h357.12v266.112H57.6z"/></clipPath></defs></svg>
